public/icons/list-from-master-list.svg

<svg width="48" height="48" viewBox="0 0 48 48" fill="none" xmlns="http://www.w3.org/2000/svg">
<path d="M15.5996 8.0957C15.7056 8.27749 15.8832 8.40658 16.0889 8.45117L20.166 9.33398L17.3867 12.4453C17.2466 12.6023 17.179 12.8112 17.2002 13.0205L17.6201 17.1709L13.8027 15.4883C13.61 15.4034 13.39 15.4034 13.1973 15.4883L9.37891 17.1709L9.7998 13.0205C9.821 12.8112 9.75339 12.6023 9.61328 12.4453L6.83301 9.33398L10.9111 8.45117C11.1168 8.40658 11.2944 8.27749 11.4004 8.0957L13.5 4.49023L15.5996 8.0957Z" stroke="black" stroke-width="1.5" stroke-linejoin="round"/>
<path d="M20.083 33.28C20.083 33.721 19.725 34.08 19.283 34.08C16.269 34.08 13.436 32.907 11.305 30.776C9.174 28.646 8 25.814 8 22.8C8 22.359 8.358 22 8.8 22C9.242 22 9.6 22.357 9.6 22.8C9.6 25.386 10.608 27.817 12.437 29.645C14.266 31.473 16.697 32.48 19.283 32.48C19.725 32.48 20.083 32.838 20.083 33.28Z" fill="black"/>
<path d="M39.8816 22H25.1184C24.5011 22 24 22.5037 24 23.1243V37.8757C24 38.4963 24.5011 39 25.1184 39H39.8816C40.4989 39 41 38.4963 41 37.8757V23.1243C41 22.5015 40.5012 22 39.8816 22ZM38.7632 36.7513H26.2368V24.2487H38.7632V36.7513Z" fill="black"/>
</svg>

<?xml version="1.0" encoding="UTF-8"?>
<svg id="Layer_1" xmlns="http://www.w3.org/2000/svg" version="1.1" viewBox="0 0 48 48">
  <!-- Generator: Adobe Illustrator 30.2.1, SVG Export Plug-In . SVG Version: 2.1.1 Build 1)  -->
  <path d="M20.08,33.28c0,.44-.36.8-.8.8-3.01,0-5.85-1.17-7.98-3.3-2.13-2.13-3.31-4.96-3.31-7.98,0-.44.36-.8.8-.8s.8.36.8.8c0,2.59,1.01,5.02,2.84,6.85,1.83,1.83,4.26,2.83,6.85,2.83.44,0,.8.36.8.8Z"/>
  <path d="M39.88,22h-14.76c-.62,0-1.12.5-1.12,1.12v14.75c0,.62.5,1.12,1.12,1.12h14.76c.62,0,1.12-.5,1.12-1.12v-14.75c0-.62-.5-1.12-1.12-1.12ZM38.76,36.75h-12.53v-12.5h12.53v12.5Z"/>
  <path d="M4.03,9.81l3.13,2.28c.36.26.51.72.37,1.14l-1.2,3.68c-.31.94.77,1.72,1.57,1.14l3.13-2.28c.36-.26.84-.26,1.2,0l3.13,2.28c.8.58,1.88-.2,1.57-1.14l-1.2-3.68c-.14-.42.01-.88.37-1.14l3.13-2.28c.8-.58.39-1.85-.6-1.85h-3.87c-.44,0-.84-.28-.97-.71l-1.2-3.68c-.31-.94-1.64-.94-1.94,0l-1.2,3.68c-.14.42-.53.71-.97.71h-3.87c-.99,0-1.4,1.27-.6,1.85Z"/>
</svg>
